; generated by Slic3r 1.2.9 on 2016-04-30 at 19:56:29

; external perimeters extrusion width = 0.40mm
; perimeters extrusion width = 0.48mm
; infill extrusion width = 0.48mm
; solid infill extrusion width = 0.48mm
; top infill extrusion width = 0.48mm

M107
M190 S65 ; set bed temperature
M104 S201 ; set temperature
G28 ; home all axes
G1 Z5 F5000 ; lift nozzle

M109 S201 ; wait for temperature to be reached
G21 ; set units to millimeters
G90 ; use absolute coordinates
M82 ; use absolute distances for extrusion
G92 E0
G1 Z1.500 F7800.000
G1 E-2.00000 F2400.00000
G92 E0
G1 X46.473 Y66.127 F7800.000
G1 E2.00000 F2400.00000
G1 X47.472 Y65.425 E2.14508 F1800.000
G1 X50.331 Y64.786 E2.49295
G1 X149.669 Y64.786 E14.29085
G1 X151.944 Y65.183 E14.56507
G1 X154.417 Y66.752 E14.91294 F1800.000
G1 X160.747 Y73.082 E15.97612
G1 X162.074 Y74.971 E16.25035
G1 X162.713 Y77.830 E16.59822
G1 X162.713 Y122.168 E21.86403
G1 X162.316 Y124.443 E22.13825
G1 X160.747 Y126.915 E22.48600
G1 X154.417 Y133.247 E23.54935
G1 X152.528 Y134.575 E23.82357
G1 X149.669 Y135.214 E24.17157
G1 X50.331 Y135.214 E35.96946
G1 X48.056 Y134.817 E36.24369
G1 X45.583 Y133.247 E36.59168
G1 X39.253 Y126.915 E37.65503
G1 X37.925 Y125.026 E37.92926
G1 X37.287 Y122.168 E38.27700
G1 X37.287 Y77.830 E43.54281
G1 X37.684 Y75.555 E43.81704
G1 X39.253 Y73.082 E44.16491
G1 X45.583 Y66.752 E45.22809
G1 X46.424 Y66.162 E45.35011
G1 E43.35011 F2400.00000
G92 E0
G1 X46.755 Y73.337 F7800.000
G1 E2.00000 F2400.00000
G1 X45.716 Y72.076 E2.19400 F1800.000
G1 X47.841 Y67.572 E2.78545
G1 X152.156 Y67.572 E15.17441
G1 X154.283 Y72.067 E15.76507
G1 X153.241 Y73.339 E15.96034
G1 X154.160 Y74.254 E16.11436
G1 X155.416 Y73.215 E16.30800
G1 X159.927 Y75.337 E16.90010
G1 X159.927 Y124.657 E22.75762
G1 X155.424 Y126.783 E23.34894
G1 X154.131 Y125.718 E23.54794
G1 X153.214 Y126.631 E23.70163
G1 X154.283 Y127.939 E23.90226
G1 X152.153 Y132.428 E24.49230
G1 X47.844 Y132.428 E36.88059
G1 X45.717 Y127.931 E37.47135
G1 X46.783 Y126.632 E37.67100
G1 X45.868 Y125.717 E37.82470
G1 X44.569 Y126.782 E38.02428
G1 X40.073 Y124.655 E38.61495
G1 X40.073 Y75.340 E44.47182
G1 X44.577 Y73.215 E45.06327
G1 X45.838 Y74.254 E45.25728
G1 X46.713 Y73.379 E45.40420
G1 X46.555 Y71.971 F7800.000
G1 X48.294 Y68.286 E45.88812 F1800.000
G1 X151.704 Y68.286 E58.16961
G1 X153.444 Y71.964 E58.65288
G1 X151.966 Y73.767 E58.92967
G1 X151.816 Y74.049 E58.96765
G1 X151.764 Y74.220 E58.98890
G1 X151.732 Y74.464 E59.01810
G1 X151.763 Y74.777 E59.05555
G1 X151.817 Y74.953 E59.07735
G1 X151.927 Y75.174 E59.10671
G1 X152.130 Y75.421 E59.14461
G1 X152.325 Y75.572 E59.17391
G1 X152.486 Y75.658 E59.19557
G1 X152.787 Y75.749 E59.23299
G1 X152.966 Y75.766 E59.25437
G1 X153.213 Y75.749 E59.28372
G1 X153.455 Y75.683 E59.31353
G1 X153.732 Y75.535 E59.35080
G1 X155.522 Y74.054 E59.62676
G1 X159.213 Y75.790 E60.11121
G1 X159.213 Y124.205 E65.86115
G1 X155.529 Y125.944 E66.34496
G1 X153.732 Y124.464 E66.62138
G1 X153.454 Y124.316 E66.65881
G1 X153.282 Y124.264 E66.68013
G1 X153.035 Y124.233 E66.70970
G1 X152.717 Y124.264 E66.74769
G1 X152.485 Y124.341 E66.77674
G1 X152.324 Y124.428 E66.79842
G1 X152.078 Y124.629 E66.83617
G1 X151.927 Y124.824 E66.86544
G1 X151.844 Y124.980 E66.88646
G1 X151.750 Y125.288 E66.92477
G1 X151.732 Y125.534 E66.95405
G1 X151.764 Y125.778 E66.98325
G1 X151.816 Y125.949 E67.00450
G1 X151.968 Y126.234 E67.04282
G1 X153.444 Y128.041 E67.31993
G1 X151.701 Y131.714 E67.80269
G1 X48.296 Y131.714 E80.08364
G1 X46.556 Y128.035 E80.56699
G1 X48.033 Y126.234 E80.84368
G1 X48.185 Y125.950 E80.88186
G1 X48.250 Y125.712 E80.91119
G1 X48.267 Y125.533 E80.93257
G1 X48.250 Y125.286 E80.96193
G1 X48.158 Y124.980 E80.99987
G1 X48.073 Y124.822 E81.02124
G1 X47.924 Y124.629 E81.05017
G1 X47.678 Y124.428 E81.08792
G1 X47.519 Y124.343 E81.10932
G1 X47.282 Y124.264 E81.13897
G1 X46.965 Y124.233 E81.17679
G1 X46.786 Y124.250 E81.19817
G1 X46.550 Y124.315 E81.22731
G1 X46.267 Y124.465 E81.26529
G1 X44.465 Y125.943 E81.54207
G1 X40.787 Y124.203 E82.02535
G1 X40.787 Y75.793 E87.77475
G1 X44.472 Y74.054 E88.25866
G1 X46.268 Y75.534 E88.53498
G1 X46.486 Y75.658 E88.56473
G1 X46.787 Y75.749 E88.60215
G1 X47.034 Y75.766 E88.63160
G1 X47.283 Y75.735 E88.66136
G1 X47.519 Y75.657 E88.69085
G1 X47.677 Y75.572 E88.71222
G1 X47.872 Y75.421 E88.74152
G1 X48.034 Y75.235 E88.77071
G1 X48.184 Y74.954 E88.80862
G1 X48.236 Y74.782 E88.82995
G1 X48.267 Y74.533 E88.85971
G1 X48.236 Y74.215 E88.89769
G1 X48.159 Y73.985 E88.92658
G1 X48.035 Y73.767 E88.95633
G1 X46.593 Y72.018 E89.22551
G1 X47.394 Y71.867 F7800.000
G1 X48.746 Y69.000 E89.60189 F1800.000
G1 X151.251 Y69.000 E101.77591
G1 X152.605 Y71.861 E102.15179
G1 X151.370 Y73.368 E102.38321
G1 X151.180 Y73.709 E102.42959
G1 X151.060 Y74.079 E102.47577
G1 X151.015 Y74.535 E102.53021
G1 X151.060 Y74.918 E102.57597
G1 X151.154 Y75.228 E102.61440
G1 X151.369 Y75.631 E102.66879
G1 X151.622 Y75.928 E102.71510
G1 X151.926 Y76.169 E102.76117
G1 X152.211 Y76.320 E102.79942
G1 X152.576 Y76.439 E102.84507
G1 X152.966 Y76.484 E102.89171
G1 X153.423 Y76.439 E102.94616
G1 X153.793 Y76.319 E102.99239
G1 X154.131 Y76.131 E103.03833
G1 X155.628 Y74.893 E103.26907
G1 X158.499 Y76.244 E103.64586
G1 X158.499 Y123.752 E109.28821
G1 X155.633 Y125.105 E109.66451
G1 X154.131 Y123.868 E109.89560
G1 X153.794 Y123.680 E109.94150
G1 X153.422 Y123.560 E109.98788
G1 X152.966 Y123.515 E110.04234
G1 X152.577 Y123.560 E110.08881
G1 X152.210 Y123.679 E110.13460
G1 X151.926 Y123.831 E110.17290
G1 X151.571 Y124.121 E110.22734
G1 X151.330 Y124.425 E110.27337
G1 X151.181 Y124.705 E110.31114
G1 X151.060 Y125.080 E110.35790
G1 X151.015 Y125.534 E110.41210
G1 X151.060 Y125.919 E110.45811
G1 X151.180 Y126.289 E110.50429
G1 X151.371 Y126.632 E110.55092
G1 X152.605 Y128.143 E110.78264
G1 X151.250 Y131.000 E111.15812
G1 X48.748 Y131.000 E123.33173
G1 X47.395 Y128.138 E123.70766
G1 X48.631 Y126.632 E123.93907
G1 X48.821 Y126.288 E123.98574
G1 X48.940 Y125.923 E124.03139
G1 X48.985 Y125.533 E124.07803
G1 X48.940 Y125.076 E124.13248
G1 X48.847 Y124.770 E124.17055
G1 X48.670 Y124.423 E124.21674
G1 X48.431 Y124.121 E124.26251
G1 X48.076 Y123.831 E124.31695
G1 X47.729 Y123.653 E124.36335
G1 X47.422 Y123.560 E124.40140
G1 X47.035 Y123.515 E124.44762
G1 X46.577 Y123.560 E124.50232
G1 X46.210 Y123.679 E124.54812
G1 X45.869 Y123.869 E124.59451
G1 X44.362 Y125.104 E124.82591
G1 X41.501 Y123.750 E125.20180
G1 X41.501 Y76.245 E130.84374
G1 X44.368 Y74.893 E131.22011
G1 X45.869 Y76.130 E131.45117
G1 X46.274 Y76.347 E131.50568
G1 X46.647 Y76.453 E131.55177
G1 X46.966 Y76.484 E131.58986
G1 X47.352 Y76.453 E131.63586
G1 X47.729 Y76.346 E131.68240
G1 X48.135 Y76.130 E131.73696
G1 X48.380 Y75.928 E131.77464
G1 X48.631 Y75.634 E131.82060
G1 X48.847 Y75.228 E131.87516
G1 X48.954 Y74.851 E131.92170
G1 X48.985 Y74.465 E131.96769
G1 X48.954 Y74.146 E132.00579
G1 X48.821 Y73.710 E132.05997
G1 X48.631 Y73.368 E132.10639
G1 X47.432 Y71.913 E132.33032
G1 E130.33032 F2400.00000
G92 E0
G1 X49.199 Y69.715 F7800.000
G1 E2.00000 F2400.00000
G1 X150.799 Y69.715 E14.06656 F1800.000
G1 X151.766 Y71.758 E14.33504
G1 X150.734 Y73.028 E14.52936
G1 X150.490 Y73.499 E14.59241
G1 X150.343 Y74.007 E14.65522
G1 X150.297 Y74.535 E14.71822
G1 X150.356 Y75.058 E14.78073
G1 X150.490 Y75.502 E14.83579
G1 X150.773 Y76.030 E14.90693
G1 X151.115 Y76.436 E14.96992
G1 X151.528 Y76.766 E15.03277
G1 X151.936 Y76.983 E15.08762
G1 X152.436 Y77.143 E15.15002
G1 X152.967 Y77.201 E15.21338
G1 X153.492 Y77.157 E15.27601
G1 X154.004 Y77.009 E15.33929
G1 X154.470 Y76.768 E15.40165
G1 X155.734 Y75.732 E15.59571
G1 X157.784 Y76.697 E15.86484
G1 X157.784 Y123.300 E21.39961
G1 X155.738 Y124.266 E21.66840
G1 X154.472 Y123.232 E21.86250
G1 X154.003 Y122.989 E21.92518
G1 X153.493 Y122.842 E21.98824
G1 X152.966 Y122.797 E22.05107
G1 X152.506 Y122.842 E22.10590
G1 X152.000 Y122.989 E22.16851
G1 X151.527 Y123.234 E22.23170
G1 X151.064 Y123.613 E22.30284
G1 X150.734 Y124.026 E22.36563
G1 X150.490 Y124.496 E22.42848
G1 X150.356 Y124.940 E22.48354
G1 X150.297 Y125.463 E22.54604
G1 X150.343 Y125.991 E22.60905
G1 X150.490 Y126.499 E22.67186
G1 X150.735 Y126.972 E22.73516
G1 X151.766 Y128.245 E22.92968
G1 X150.798 Y130.285 E23.19788
G1 X49.201 Y130.285 E35.26414
G1 X48.234 Y128.242 E35.53266
G1 X49.267 Y126.971 E35.72716
G1 X49.510 Y126.500 E35.79014
G1 X49.658 Y125.992 E35.85298
G1 X49.702 Y125.464 E35.91586
G1 X49.644 Y124.937 E35.97890
G1 X49.510 Y124.495 E36.03371
G1 X49.267 Y124.025 E36.09655
G1 X48.938 Y123.613 E36.15917
G1 X48.475 Y123.234 E36.23030
G1 X48.003 Y122.989 E36.29337
G1 X47.493 Y122.842 E36.35643
G1 X46.966 Y122.797 E36.41926
G1 X46.506 Y122.842 E36.47409
G1 X46.000 Y122.989 E36.53671
G1 X45.528 Y123.233 E36.59976
G1 X44.259 Y124.265 E36.79407
G1 X42.216 Y123.298 E37.06256
G1 X42.216 Y76.698 E42.59703
G1 X44.263 Y75.732 E42.86587
G1 X45.530 Y76.767 E43.06013
G1 X45.999 Y77.009 E43.12287
G1 X46.507 Y77.157 E43.18571
G1 X47.035 Y77.201 E43.24859
G1 X47.562 Y77.143 E43.31163
G1 X48.004 Y77.009 E43.36643
G1 X48.474 Y76.766 E43.42927
G1 X48.887 Y76.436 E43.49212
G1 X49.228 Y76.032 E43.55485
G1 X49.510 Y75.503 E43.62607
G1 X49.658 Y74.991 E43.68935
G1 X49.702 Y74.466 E43.75198
G1 X49.658 Y74.006 E43.80680
G1 X49.510 Y73.498 E43.86963
G1 X49.268 Y73.029 E43.93237
G1 X48.233 Y71.762 E44.12663
G1 X49.174 Y69.769 E44.38835
G1 X49.652 Y70.429 F7800.000
G1 X150.347 Y70.429 E56.34744 F1800.000
G1 X150.927 Y71.655 E56.50853
G1 X150.176 Y72.571 E56.64921
G1 X149.854 Y73.159 E56.72891
G1 X149.639 Y73.866 E56.81664
G1 X149.579 Y74.535 E56.89646
G1 X149.653 Y75.199 E56.97571
G1 X149.854 Y75.842 E57.05573
G1 X150.176 Y76.429 E57.13530
G1 X150.607 Y76.943 E57.21498
G1 X151.130 Y77.363 E57.29460
G1 X151.724 Y77.672 E57.37415
G1 X152.367 Y77.861 E57.45375
G1 X152.967 Y77.919 E57.52528
G1 X153.702 Y77.847 E57.61301
G1 X154.342 Y77.645 E57.69272
G1 X154.930 Y77.324 E57.77228
G1 X155.840 Y76.571 E57.91257
G1 X157.070 Y77.150 E58.07405
G1 X157.070 Y122.847 E63.50124
G1 X155.842 Y123.427 E63.66251
G1 X154.930 Y122.675 E63.80291
G1 X154.343 Y122.353 E63.88242
G1 X153.701 Y122.152 E63.96225
G1 X152.966 Y122.080 E64.05001
G1 X152.297 Y122.152 E64.12991
G1 X151.660 Y122.353 E64.20919
G1 X151.071 Y122.675 E64.28895
G1 X150.557 Y123.105 E64.36855
G1 X150.176 Y123.569 E64.43981
G1 X149.854 Y124.156 E64.51937
G1 X149.653 Y124.799 E64.59940
G1 X149.579 Y125.463 E64.67864
G1 X149.639 Y126.132 E64.75846
G1 X149.854 Y126.839 E64.84619
G1 X150.177 Y127.428 E64.92599
G1 X150.927 Y128.347 E65.06692
G1 X150.346 Y129.571 E65.22784
G1 X49.653 Y129.571 E77.18676
G1 X49.073 Y128.345 E77.34787
G1 X49.825 Y127.428 E77.48870
G1 X50.147 Y126.838 E77.56855
G1 X50.362 Y126.132 E77.65624
G1 X50.420 Y125.464 E77.73583
G1 X50.348 Y124.797 E77.81551
G1 X50.173 Y124.221 E77.88706
G1 X49.864 Y123.627 E77.96656
G1 X49.445 Y123.105 E78.04602
G1 X48.931 Y122.675 E78.12563
G1 X48.343 Y122.353 E78.20527
G1 X47.701 Y122.152 E78.28510
G1 X47.036 Y122.080 E78.36461
G1 X46.366 Y122.138 E78.44441
G1 X45.660 Y122.353 E78.53204
G1 X45.072 Y122.675 E78.61175
G1 X44.156 Y123.426 E78.75242
G1 X42.930 Y122.846 E78.91352
G1 X42.930 Y77.151 E84.34052
G1 X44.158 Y76.571 E84.50183
G1 X45.071 Y77.324 E84.64238
G1 X45.661 Y77.646 E84.72214
G1 X46.367 Y77.861 E84.80983
G1 X47.035 Y77.919 E84.88943
G1 X47.702 Y77.847 E84.96911
G1 X48.278 Y77.672 E85.04066
G1 X48.872 Y77.363 E85.12015
G1 X49.395 Y76.943 E85.19977
G1 X49.825 Y76.430 E85.27928
G1 X50.146 Y75.841 E85.35900
G1 X50.348 Y75.201 E85.43871
G1 X50.420 Y74.534 E85.51838
G1 X50.362 Y73.866 E85.59798
G1 X50.147 Y73.160 E85.68567
G1 X49.825 Y72.570 E85.76543
G1 X49.072 Y71.657 E85.90598
G1 X49.626 Y70.483 E86.06016
G1 X50.105 Y71.143 F7800.000
G1 X149.895 Y71.143 E97.91179 F1800.000
G1 X150.088 Y71.552 E97.96549
G1 X149.541 Y72.230 E98.06907
G1 X149.164 Y72.949 E98.16544
G1 X148.935 Y73.725 E98.26155
G1 X148.861 Y74.536 E98.35819
G1 X148.949 Y75.339 E98.45417
G1 X149.191 Y76.116 E98.55083
G1 X149.580 Y76.828 E98.64714
G1 X150.100 Y77.451 E98.74351
G1 X150.732 Y77.960 E98.83991
G1 X151.449 Y78.335 E98.93606
G1 X152.227 Y78.565 E99.03241
G1 X152.967 Y78.636 E99.12066
G1 X153.771 Y78.565 E99.21657
G1 X154.553 Y78.335 E99.31333
G1 X155.269 Y77.961 E99.40932
G1 X155.946 Y77.410 E99.51292
G1 X156.356 Y77.603 E99.56675
G1 X156.356 Y122.394 E104.88635
G1 X155.947 Y122.588 E104.94011
G1 X155.270 Y122.039 E105.04353
G1 X154.552 Y121.663 E105.13982
G1 X153.772 Y121.435 E105.23633
G1 X152.966 Y121.362 E105.33245
G1 X152.157 Y121.448 E105.42907
G1 X151.385 Y121.690 E105.52510
G1 X150.673 Y122.079 E105.62147
G1 X150.050 Y122.597 E105.71777
G1 X149.580 Y123.170 E105.80579
G1 X149.191 Y123.882 E105.90210
G1 X148.949 Y124.659 E105.99875
G1 X148.861 Y125.462 E106.09474
G1 X148.935 Y126.273 E106.19138
G1 X149.164 Y127.049 E106.28749
G1 X149.541 Y127.768 E106.38395
G1 X150.088 Y128.449 E106.48768
G1 X149.895 Y128.857 E106.54132
G1 X50.105 Y128.857 E118.39289
G1 X49.912 Y128.448 E118.44659
G1 X50.461 Y127.767 E118.55051
G1 X50.836 Y127.050 E118.64667
G1 X51.066 Y126.272 E118.74303
G1 X51.137 Y125.464 E118.83934
G1 X51.052 Y124.657 E118.93566
G1 X50.836 Y123.946 E119.02394
G1 X50.461 Y123.229 E119.12009
G1 X49.952 Y122.597 E119.21641
G1 X49.329 Y122.079 E119.31271
G1 X48.617 Y121.690 E119.40902
G1 X47.841 Y121.448 E119.50558
G1 X47.036 Y121.362 E119.60173
G1 X46.226 Y121.434 E119.69825
G1 X45.450 Y121.663 E119.79436
G1 X44.731 Y122.040 E119.89074
G1 X44.053 Y122.587 E119.99431
G1 X43.644 Y122.394 E120.04801
G1 X43.644 Y77.604 E125.36755
G1 X44.053 Y77.410 E125.42132
G1 X44.732 Y77.961 E125.52508
G1 X45.449 Y78.335 E125.62116
G1 X46.227 Y78.565 E125.71751
G1 X47.035 Y78.636 E125.81382
G1 X47.842 Y78.551 E125.91014
G1 X48.553 Y78.335 E125.99843
G1 X49.270 Y77.960 E126.09458
G1 X49.902 Y77.451 E126.19097
G1 X50.422 Y76.828 E126.28726
G1 X50.809 Y76.115 E126.38363
G1 X51.052 Y75.341 E126.48008
G1 X51.137 Y74.534 E126.57639
G1 X51.066 Y73.726 E126.67271
G1 X50.836 Y72.948 E126.76906
G1 X50.461 Y72.231 E126.86514
G1 X49.911 Y71.552 E126.96890
G1 X50.079 Y71.197 E127.01554
G1 E125.01554 F2400.00000
G92 E0
G1 X51.142 Y128.100 F7800.000
G1 E2.00000 F2400.00000
G1 X51.528 Y127.374 E2.09768 F1800.000
G1 X51.809 Y126.456 E2.21165
G1 X51.901 Y125.498 E2.32600
G1 X51.809 Y124.544 E2.43984
G1 X51.528 Y123.622 E2.55426
G1 X51.077 Y122.775 E2.66826
G1 X50.467 Y122.032 E2.78250
G1 X49.724 Y121.424 E2.89650
G1 X48.877 Y120.971 E3.01062
G1 X47.955 Y120.692 E3.12496
G1 X47.001 Y120.598 E3.23882
G1 X46.043 Y120.692 E3.35320
G1 X45.125 Y120.971 E3.46710
G1 X44.401 Y121.358 E3.56461
G1 X44.401 Y78.642 E8.63778
G1 X45.125 Y79.027 E8.73519
G1 X46.043 Y79.308 E8.84917
G1 X47.001 Y79.400 E8.96352
G1 X47.955 Y79.308 E9.07736
G1 X48.877 Y79.027 E9.19178
G1 X49.724 Y78.576 E9.30577
G1 X50.467 Y77.966 E9.41997
G1 X51.077 Y77.223 E9.53417
G1 X51.528 Y76.376 E9.64817
G1 X51.809 Y75.454 E9.76259
G1 X51.901 Y74.500 E9.87642
G1 X51.809 Y73.542 E9.99078
G1 X51.528 Y72.624 E10.10475
G1 X51.143 Y71.900 E10.20216
G1 X148.859 Y71.900 E21.80742
G1 X148.472 Y72.624 E21.90493
G1 X148.193 Y73.541 E22.01877
G1 X148.097 Y74.500 E22.13323
G1 X148.193 Y75.455 E22.24717
G1 X148.472 Y76.376 E22.36146
G1 X148.925 Y77.223 E22.47562
G1 X149.535 Y77.966 E22.58977
G1 X150.278 Y78.576 E22.70397
G1 X151.125 Y79.027 E22.81794
G1 X152.043 Y79.308 E22.93191
G1 X153.001 Y79.400 E23.04626
G1 X153.955 Y79.308 E23.16010
G1 X154.877 Y79.027 E23.27452
G1 X155.599 Y78.643 E23.37169
G1 X155.599 Y121.357 E28.44461
G1 X154.877 Y120.971 E28.54188
G1 X153.955 Y120.692 E28.65623
